X: 081
T: Lady Charlotte Campbells Strathspey
R: strathspey
M: C|
L: 1/16
Z: 2012 John Chambers <jc:trillian.mit.edu>
B: J. Anderson "Budget of Strathspeys, Reels and Country Dances" (Early 1800s) p.8 #1
F: http://imslp.org/wiki/Anderson%27s_Budget_of_Strathspeys,_Reels_and_Country_Dances_(Various)
K: D
(AG) |\
(F3A) (A3d) G2B2 B2(ed) | (ce3)(a3g) (f2d'2)(d2a2) |\
F3A A3d G2B2B2(ed) | ce3A3g f2d2d2 :|
c'2 |\
(d'2d2)c2c'2 (b2B2)(A2a2) | g3e (gf)(ed) ce3e3c' |\
d'3dc'3d b3da3d | (cde2) (Ag3) f3dd3b |
(d'2d2)(c2c'2) (b2B2)(A2a2) | g3e (gf)(ed) ce3 (e2dc) |\
B3dA3d G3d F3A | (G2AB) (A2G2) F2D2D2 |]

%%sep 2 1 500
%%sep 1 1 500

